X:1029
T:Windbroke
R:reel
C:Michael McGoldrick
Z:id:hn-reel-1029
M:C|
L:1/8
K:Em
BE~E2 GABE- | EGAd B2AG | BE~E2 GABc- | cBAG B2AG |
BE~E2 GABE- | EGAd B2AG | edde B2AG | A2AG FGAc :|
|: Begf efde- | eedf e2ed | Begf efga- | aa2g fedA |
Begf efde- | eedf e2eB | c3A ~B3G | A2AG FGAc :|

